X: 13383
T: Fleur De Mandragore
R: reel
M: 4/4
K: Amajor
EAAE GAB2|Aced cAAF|EAAE GAB2-|BBBd cAAF|
E3A GAB2|Aced cAAF|EAAE GAB2|1 BABd cAA2:|2 BABd cAAA Aceg||
|:[A3a3] [a3A3] aga|bAaA ~g2ec|dged cABc|defg agfg|
[A3a3] [a3A3] aga|bAaA ~g2ec|dged cABc|1 dcBc BAce:|2 dcBc BAAF||

